X:7851
T:Vieni sul mar
C:anon.
O:Italy
A:Venice?
Z:Transcribed by Frank Nordberg - http://www.musicaviva.com
F:http://abc.musicaviva.com/tunes/italy/vieni-sul-mar.abc
M:3/4
L:1/4
K:C
"C"E3|"G7"DCD|"C"C3-|"C"C2z|
"F"c3|"F"AFA|"C"G3-|"C"G2z|
"F"cAc|"G7"BGB|"F"AFA|"C"G3|
"C"E3|"G7"DCD|"C"C3-|"C"C2z|]
W:
W:
W:  From Musica Viva - http://www.musicaviva.com
W:  the Internet center for free sheet music downloads.

